X: 1459
T: Andee's Porridge
R: hornpipe
M: 4/4
K: Fmajor
(3CDE|F>A G>A F>A G>A|F>C A,>C F>A G>F|G>B A>B G>B A>B|(3GAG (3FED C2 (3CDE|
F>A G>A F>A G>A|F>G A>F G>A B>d|c>d c>A B>G E>F|G>F F>E F2:|
|:A>B|c>f a>f c>f a>f|b>g a>f g>f (3def|c>f a>f c>f a>f|(3gag (3fed (3cdc (3BAG|
c>f (3fef a>f (3fef|d>f c>f B>f A>f|(3cBc a2 (3cBc a2|b>g e>g f2:|

